X: 120
T: Non per la
N: Derived from Mar3021-Non_per_la.krn
C: Johannes Martini
%%abc-version 2.0
%%abcx-abcm2ps-target-version 5.9.1 (29 Sep 2008)
%%abc-creator hum2abc beta
%%abcx-conversion-date 2019/02/17 07:19:43
%%abc-edited-by Jesse Rodin
%%abc-edited-by Chris Gage 11-06-2014
%%abcx-initial-encoding-date 2015/03/02/
%%humdrum-veritas 3024876678
%%humdrum-veritas-data 1452949619
%%linebreak <none>
%%barnumbers 0
L: 1/4
M: 2/1
Q: 1/2=120
V: 1 clef=treble
V: 2 clef=treble-8
V: 3 clef=bass
K: Bb
[V:1] z8 | 
[V:2] z4B4 | 
[V:3] B,,4D,2E,2 | 
[V:1] z8 | 
[V:2] A3Bc2B2- | 
[V:3] F,3G,A,2G,2- | 
[V:1] z8 | 
[V:2] B2AGF2G2- | 
[V:3] G,2F,E,D,2C,2 | 
[V:1] z4B4 | 
[V:2] GCF4=E2 | 
[V:3] E,2F,2G,4 | 
[V:1] A3Bc2B2- | 
[V:2] F3GA2G2- | 
[V:3] F,4z4 | 
[V:1] B2AGF2G2- | 
[V:2] G2FED2C2 | 
[V:3] z8 | 
[V:1] GCF4=E2 | 
[V:2] E2F2G4 | 
[V:3] z4B,4 | 
[V:1] F6D2- | 
[V:2] F4z4 | 
[V:3] A,3B,C2B,2- | 
[V:1] DEF3ED2- | 
[V:2] z8 | 
[V:3] B,2A,G,F,2G,2- | 
[V:1] D2CB,A,2B,2- | 
[V:2] z8 | 
[V:3] G,C,F,4E,2 | 
[V:1] B,2A,2B,4 | 
[V:2] f6d2- | 
[V:3] F,4B,,4- | 
[V:1] z8 | 
[V:2] def3ed2- | 
[V:3] B,,4B,,4 | 
[V:1] z4z2C2 | 
[V:2] d2cBA3G | 
[V:3] C,8 | 
[V:1] DEFGA2F2- | 
[V:2] B4A2B2 | 
[V:3] B,,4z2B,,2 | 
[V:1] F2=E2F4 | 
[V:2] G4F2A2 | 
[V:3] C,4z2D,2 | 
[V:1] z2B4A2 | 
[V:2] G2B2c4 | 
[V:3] E,4z2F,2 | 
[V:1] B2d3cc2- | 
[V:2] z2B2A2F2 | 
[V:3] G,4z2A,2 | 
[V:1] cBB4A2 | 
[V:2] G4F4 | 
[V:3] B,4z2C2 | 
[V:1] BAGFG4 | 
[V:2] z2f4=e2 | 
[V:3] D4C4 | 
[V:1] F4B,2C2 | 
[V:2] f2d4c2 | 
[V:3] F,2B,4A,2 | 
[V:1] B,CDEFGA2 | 
[V:2] d2B4A2 | 
[V:3] G,4F,3E, | 
[V:1] F2B4A2 | 
[V:2] B2d2c4 | 
[V:3] D,C,B,,2E,2F,2 | 
[V:1] B3AF2G2- | 
[V:2] B8 | 
[V:3] G,3A,B,2E,2- | 
[V:1] GFD2E3D | 
[V:2] B4c3B | 
[V:3] E,F,G,2C,3D, | 
[V:1] B,2D3EF2 | 
[V:2] G2F2B4- | 
[V:3] E,2B,,3C,D,2 | 
[V:1] G2FGAGFE | 
[V:2] B4A4 | 
[V:3] G,,2B,,2C,2D,2 | 
[V:1] !fermata!D8 | 
[V:2] !fermata!B8 | 
[V:3] !fermata!B,,8 | 
[V:1] z8 | 
[V:2] z8 | 
[V:3] D,4E,3F, | 
[V:1] z4D4 | 
[V:2] z8 | 
[V:3] G,2F,4E,D, | 
[V:1] E3FG2F2- | 
[V:2] z8 | 
[V:3] C,4B,,4 | 
[V:1] F2EDC4 | 
[V:2] z4A4 | 
[V:3] D,2E,2F,4 | 
[V:1] B,CDEF2G2 | 
[V:2] B3cd2c2- | 
[V:3] z2B,,4E,2 | 
[V:1] C2F4=E2 | 
[V:2] c2BAG4 | 
[V:3] F,2B,,2C,4 | 
[V:1] F2c3BA2- | 
[V:2] F8 | 
[V:3] C4z2C2- | 
[V:1] A2GFG4 | 
[V:2] z2f4=e2 | 
[V:3] C2A,2B,2C2 | 
[V:1] F8 | 
[V:2] f2d4cB | 
[V:3] F,4z2F,2- | 
[V:1] F4E2DC | 
[V:2] A2B4AG | 
[V:3] F,2D,2E,2F,2 | 
[V:1] D8 | 
[V:2] F2G4FE | 
[V:3] B,,2B,4A,2 | 
[V:1] z4C4 | 
[V:2] D2E4DC | 
[V:3] F,2G,4F,E, | 
[V:1] D2F4G2 | 
[V:2] B,4B4 | 
[V:3] F,E,D,C,B,,2E,2 | 
[V:1] F2D2E2DC | 
[V:2] z4c4 | 
[V:3] F,2G,2C,4 | 
[V:1] B,4z2B2 | 
[V:2] d2f4g2 | 
[V:3] z2B,,2D,2E,2 | 
[V:1] A2B2c2Bc | 
[V:2] f2d2e2dc | 
[V:3] F,2G,2C,2G,2 | 
[V:1] d2cBcBAG | 
[V:2] B4z2B2 | 
[V:3] G,F,E,D,C,2E,2 | 
[V:1] F2B4A2 | 
[V:2] A2B2c4 | 
[V:3] F,2G,2F,4 | 
[V:1] B8 |]  
[V:2] B8 |]  
[V:3] B,,8 |]  



